X: 27387
T: Moccassin Walk
R: jig
M: 6/8
K: Amixolydian
|:EAA ABc|BAB cBA|G2B Bcd|cBA GAF|E2A ABc|
BAB cef|1 g2e dec|d3 dcB:|2 g2f efd|e3 e2^g||
aeg f2e-|ede fee|GAA e2A|GAA BAG|
aeg f2e|Bcd e3|GAA edB|A3 Ace|
aeg f2e-|ede fee|G3- G2A|B2d fee|
EAA ABc|BAB cea|gfe dcB|A3 A2G||

